X:1
T:The Dingle Regatta
R:slide
O:Ireland
M:12/8
L:1/8
K:G
"G" d^cd   e2  d  BAB  d2  B | "D" A3 AGA "G" B2 A G2 G |
"G" d^cd   e2  d  BAB  d2  B | "D" A3 AGA "G" G3     G3 :|
"G" d2 d    def    g3    gfg | "D" a3 aga "G" b2 a  gfe |
"G" d^cd    def    g3    g2b | "D" a2 g     f2 e def g3 :|
"G" g2 g "D" d2 d "G" BdB G3 | "D" ABA DEF    G2 B d2 d |
"G" g2 g "D" d2 d "G" BdB G3 | "G" A3  DEF    G2 B G2 G :|
